src/assets/logo-goole.svg

<svg width="212" height="71" viewBox="0 0 212 71" fill="none" xmlns="http://www.w3.org/2000/svg">
<g clip-path="url(#clip0_351_14152)">
<path d="M52.3037 25.3246H27.6979V32.6258H45.1499C44.2851 42.8454 35.7694 47.232 27.7273 47.232C25.1796 47.2432 22.6552 46.7467 20.3015 45.7716C17.9478 44.7965 15.8119 43.3623 14.0185 41.5526C12.2252 39.743 10.8103 37.5942 9.85648 35.2318C8.90268 32.8693 8.42906 30.3405 8.46328 27.793C8.46328 16.7401 17.0203 8.23025 27.7509 8.23025C36.0288 8.23025 40.9068 13.5071 40.9068 13.5071L46.0166 8.21256C46.0166 8.21256 39.4524 0.907471 27.4836 0.907471C12.2426 0.907471 0.452637 13.7705 0.452637 27.6633C0.452637 41.2771 11.5429 54.5528 27.8688 54.5528C42.2294 54.5528 52.7419 44.7144 52.7419 30.1671C52.7419 27.0973 52.2958 25.3246 52.2958 25.3246H52.3037Z" fill="#4885ED"/>
<path d="M72.4619 20.031C62.3641 20.031 55.1278 27.9257 55.1278 37.1293C55.1278 46.4724 62.144 54.5125 72.5798 54.5125C82.0252 54.5125 89.7626 47.2939 89.7626 37.3298C89.7626 25.9309 80.7615 20.0291 72.4619 20.0291V20.031ZM72.5602 26.8035C77.5246 26.8035 82.2296 30.8187 82.2296 37.2865C82.2296 43.6148 77.5442 47.7459 72.5366 47.7459C67.0337 47.7459 62.71 43.3397 62.71 37.2354C62.71 31.2609 66.9944 26.8035 72.5759 26.8035H72.5602Z" fill="#DB3236"/>
<path d="M110.156 20.031C100.059 20.031 92.8223 27.9257 92.8223 37.1293C92.8223 46.4724 99.8385 54.5125 110.274 54.5125C119.72 54.5125 127.457 47.2939 127.457 37.3298C127.457 25.9309 118.456 20.0291 110.156 20.0291V20.031ZM110.255 26.8035C115.219 26.8035 119.924 30.8187 119.924 37.2865C119.924 43.6148 115.239 47.7459 110.231 47.7459C104.728 47.7459 100.404 43.3397 100.404 37.2354C100.404 31.2609 104.689 26.8035 110.27 26.8035H110.255Z" fill="#F4C20D"/>
<path d="M147.129 20.0542C137.861 20.0542 130.578 28.171 130.578 37.2822C130.578 47.6591 139.022 54.5416 146.968 54.5416C151.882 54.5416 154.495 52.5901 156.402 50.3516V53.7516C156.402 59.7006 152.79 63.2637 147.338 63.2637C142.071 63.2637 139.429 59.3468 138.494 57.126L131.867 59.8775C134.217 64.8497 138.95 70.0323 147.393 70.0323C156.63 70.0323 163.63 64.2287 163.63 52.0555V21.0899H156.429V24.0104C154.209 21.6127 151.166 20.0542 147.133 20.0542H147.129ZM147.798 26.8149C152.341 26.8149 157.007 30.6944 157.007 37.3195C157.007 44.0547 152.349 47.7652 147.697 47.7652C142.757 47.7652 138.16 43.756 138.16 37.3824C138.16 30.7632 142.935 26.8149 147.798 26.8149Z" fill="#4885ED"/>
<path d="M195.823 20.0082C187.082 20.0082 179.741 26.9654 179.741 37.2244C179.741 48.0847 187.923 54.5251 196.643 54.5251C203.938 54.5251 208.435 50.5355 211.088 46.9586L205.127 42.9926C203.581 45.3903 200.994 47.7388 196.68 47.7388C191.834 47.7388 189.605 45.0856 188.224 42.5111L211.342 32.9203L210.162 30.1099C207.93 24.607 202.718 20.0082 195.823 20.0082ZM196.124 26.6392C199.275 26.6392 201.541 28.3136 202.504 30.3222L187.064 36.7743C186.396 31.7785 191.132 26.6392 196.104 26.6392H196.124Z" fill="#DB3236"/>
<path d="M168.701 53.5054H176.295V2.68811H168.701V53.5054Z" fill="#3CBA54"/>
</g>
<defs>
<clipPath id="clip0_351_14152">
<rect width="212" height="71" fill="white"/>
</clipPath>
</defs>
</svg>

<svg width="212" height="71" fill="none" xmlns="http://www.w3.org/2000/svg"><g clip-path="url(#a)"><path d="M52.304 25.325H27.698v7.3H45.15c-.865 10.22-9.38 14.607-17.423 14.607A19.182 19.182 0 0 1 8.463 27.793C8.463 16.74 17.02 8.23 27.751 8.23c8.278 0 13.156 5.277 13.156 5.277l5.11-5.294S39.452.907 27.484.907C12.243.907.453 13.771.453 27.663c0 13.614 11.09 26.89 27.416 26.89 14.36 0 24.873-9.839 24.873-24.386 0-3.07-.446-4.842-.446-4.842h.008Z" fill="#4885ED"/><path d="M72.462 20.031c-10.098 0-17.334 7.895-17.334 17.098 0 9.343 7.016 17.384 17.452 17.384 9.445 0 17.183-7.22 17.183-17.183 0-11.4-9.002-17.3-17.301-17.3v.001Zm.098 6.773c4.965 0 9.67 4.015 9.67 10.482 0 6.329-4.686 10.46-9.693 10.46-5.503 0-9.827-4.406-9.827-10.51 0-5.975 4.284-10.432 9.866-10.432h-.016Z" fill="#DB3236"/><path d="M110.156 20.031c-10.097 0-17.334 7.895-17.334 17.098 0 9.343 7.016 17.384 17.452 17.384 9.446 0 17.183-7.22 17.183-17.183 0-11.4-9.001-17.3-17.301-17.3v.001Zm.099 6.773c4.964 0 9.669 4.015 9.669 10.482 0 6.329-4.685 10.46-9.693 10.46-5.503 0-9.827-4.406-9.827-10.51 0-5.975 4.285-10.432 9.866-10.432h-.015Z" fill="#F4C20D"/><path d="M147.129 20.054c-9.268 0-16.551 8.117-16.551 17.228 0 10.377 8.444 17.26 16.39 17.26 4.914 0 7.527-1.952 9.434-4.19v3.4c0 5.949-3.612 9.512-9.064 9.512-5.267 0-7.909-3.917-8.844-6.138l-6.627 2.752c2.35 4.972 7.083 10.154 15.526 10.154 9.237 0 16.237-5.803 16.237-17.976V21.09h-7.201v2.92c-2.22-2.397-5.263-3.956-9.296-3.956h-.004Zm.669 6.76c4.543 0 9.209 3.88 9.209 10.505 0 6.736-4.658 10.446-9.31 10.446-4.94 0-9.537-4.009-9.537-10.383 0-6.619 4.775-10.567 9.638-10.567Z" fill="#4885ED"/><path d="M195.823 20.008c-8.741 0-16.082 6.957-16.082 17.216 0 10.86 8.182 17.301 16.902 17.301 7.295 0 11.792-3.99 14.445-7.566l-5.961-3.966c-1.546 2.397-4.133 4.746-8.447 4.746-4.846 0-7.075-2.653-8.456-5.228l23.118-9.59-1.18-2.811c-2.232-5.503-7.444-10.102-14.339-10.102Zm.301 6.631c3.151 0 5.417 1.675 6.38 3.683l-15.44 6.452c-.668-4.995 4.068-10.135 9.04-10.135h.02Z" fill="#DB3236"/><path d="M168.701 53.505h7.594V2.688h-7.594v50.817Z" fill="#3CBA54"/></g><defs><clipPath id="a"><path fill="#fff" d="M0 0h212v71H0z"/></clipPath></defs></svg>
